arkscan/icons/novadax.svg

<svg width="201" height="201" viewBox="0 0 201 201" fill="none" xmlns="http://www.w3.org/2000/svg">
<path d="M21.0846 124.389C6.0455 73.329 39.5197 24.3305 89.2459 17.4174C101.374 15.7194 113.745 16.811 125.388 20.4495L126.116 20.6921C138.366 24.5731 149.402 31.365 158.377 40.4612C158.135 41.3102 157.892 42.1592 157.407 43.0082C153.405 50.1639 148.917 56.9558 143.945 63.3838C141.276 66.901 139.093 70.6608 135.576 73.4503C135.091 72.8439 134.485 72.2375 133.999 71.5098C118.475 52.9534 90.8225 50.5278 72.2662 66.1733C60.2591 76.3611 54.5588 92.1279 57.3483 107.652C59.4102 118.81 65.2318 127.785 74.0854 134.941C73.7216 135.547 73.2365 136.154 72.63 136.639C62.5635 144.401 52.3757 152.042 41.0964 157.985C31.8788 148.403 25.087 137.003 21.0846 124.389Z" fill="#1D3245"/>
<path d="M135.576 73.45C139.093 70.7818 141.276 66.9007 143.945 63.3835C148.917 56.9555 153.526 50.0423 157.407 43.0079C157.892 42.2802 158.256 41.3099 158.377 40.4609C161.288 42.4015 163.229 45.3123 165.29 47.8592C171.719 55.9852 176.691 65.2027 179.844 75.148C182.634 84.9719 183.726 95.281 183.119 105.469C182.27 120.993 176.812 135.911 167.595 148.524C147.219 176.783 111.441 189.276 77.8452 179.937C76.9962 179.694 76.2685 179.573 75.4196 179.33C72.7513 178.239 69.9618 177.269 67.2936 176.177C57.3484 171.932 48.3734 165.747 40.9751 157.863C52.2544 151.92 62.4422 144.279 72.5088 136.517C72.9939 136.032 73.479 135.426 73.9642 134.819L74.9344 134.941C84.8796 142.703 96.2803 144.886 108.409 142.703C140.064 137.002 154.739 99.7685 135.576 73.9351C135.576 73.6926 135.576 73.5713 135.576 73.45Z" fill="#207968"/>
<path d="M41.0968 157.742C48.4951 165.625 57.47 171.811 67.4153 176.056C70.0835 177.269 72.873 178.239 75.5412 179.209C62.9278 187.82 49.9505 195.582 34.7901 198.493C23.0256 200.798 12.5952 198.493 5.19692 188.184C0.103025 181.15 -0.503398 173.024 1.31585 164.776C4.46922 149.616 11.9888 136.639 20.9638 124.268C24.9661 137.003 31.8793 148.403 41.0968 157.742Z" fill="#8BC9A3"/>
<path d="M180.088 75.1482C176.934 65.203 171.962 55.9855 165.534 47.8595C163.35 45.3125 161.41 42.4017 158.62 40.4612C149.524 31.365 138.487 24.6944 126.359 20.692L125.631 20.4495C135.213 14.264 144.915 8.32114 155.588 4.31879C163.472 1.40799 171.476 -0.41127 179.966 1.16541C190.639 3.22723 199.129 12.8086 200.221 23.7241C200.948 31.6075 199.129 38.8845 196.34 46.1615C192.095 56.4706 186.637 66.1733 180.088 75.1482Z" fill="#8BC9A3"/>
<path d="M75.0559 134.941C80.0285 130.575 85.0011 126.208 89.9738 121.721C101.738 111.291 112.775 100.133 123.327 88.4893C127.572 83.7593 131.817 79.0292 135.698 73.9353C154.739 99.8899 140.064 137.003 108.53 142.703C96.2805 144.886 84.8799 142.582 75.0559 134.941Z" fill="#8BC9A3"/>
</svg>

<svg width="201" height="201" fill="none" xmlns="http://www.w3.org/2000/svg"><path d="M21.085 124.389C6.045 73.329 39.52 24.331 89.245 17.417c12.129-1.698 24.5-.606 36.143 3.032l.728.243a78.648 78.648 0 0 1 32.261 19.77c-.242.848-.485 1.697-.97 2.546a164.46 164.46 0 0 1-13.462 20.376c-2.669 3.517-4.852 7.277-8.369 10.066-.485-.606-1.091-1.213-1.577-1.94-15.524-18.557-43.176-20.982-61.733-5.337C60.26 76.361 54.56 92.128 57.348 107.652c2.062 11.158 7.884 20.133 16.737 27.289a6.385 6.385 0 0 1-1.455 1.698c-10.066 7.762-20.254 15.403-31.534 21.346-9.217-9.582-16.009-20.982-20.011-33.596Z" fill="#1D3245"/><path d="M135.576 73.45c3.517-2.668 5.7-6.55 8.369-10.067 4.972-6.428 9.581-13.34 13.462-20.375a6.53 6.53 0 0 0 .97-2.547c2.911 1.94 4.852 4.851 6.913 7.398 6.429 8.126 11.401 17.344 14.554 27.289 2.79 9.824 3.882 20.133 3.275 30.321-.849 15.524-6.307 30.442-15.524 43.055-20.376 28.259-56.154 40.752-89.75 31.413-.849-.243-1.576-.364-2.425-.607-2.669-1.091-5.458-2.061-8.126-3.153-9.946-4.245-18.92-10.43-26.319-18.314 11.28-5.943 21.467-13.584 31.534-21.346.485-.485.97-1.091 1.455-1.698l.97.122c9.946 7.762 21.346 9.945 33.475 7.762 31.655-5.701 46.33-42.934 27.167-68.768v-.485Z" fill="#207968"/><path d="M41.097 157.742c7.398 7.883 16.373 14.069 26.318 18.314 2.668 1.213 5.458 2.183 8.126 3.153-12.613 8.611-25.59 16.373-40.75 19.284-11.765 2.305-22.196 0-29.594-10.309-5.094-7.034-5.7-15.16-3.881-23.408 3.153-15.16 10.673-28.137 19.648-40.508a82.943 82.943 0 0 0 20.133 33.474ZM180.088 75.148c-3.154-9.945-8.126-19.162-14.554-27.288-2.184-2.547-4.124-5.458-6.914-7.399-9.096-9.096-20.133-15.767-32.261-19.769l-.728-.242c9.582-6.186 19.284-12.129 29.957-16.131 7.884-2.911 15.888-4.73 24.378-3.154 10.673 2.062 19.163 11.644 20.255 22.56.727 7.883-1.092 15.16-3.881 22.436a138.777 138.777 0 0 1-16.252 28.987ZM75.056 134.941c4.972-4.366 9.945-8.733 14.918-13.22 11.764-10.43 22.801-21.588 33.353-33.232 4.245-4.73 8.49-9.46 12.371-14.554 19.041 25.955 4.366 63.068-27.168 68.768-12.25 2.183-23.65-.121-33.474-7.762Z" fill="#8BC9A3"/></svg>
